!!!!SEGMENT: pl-sa--95-a-ii-35--002_anonim--chori-angelici.krn
!!!cenid: 17xx:1453
!!!COM: Anonim
!!!COM-rismID: pe30004985
!!!CDT:
!!!CNT:
!!!OTL: Chori angelici
!!!PDT:
!!!AGN:
!!!SMS-siglum: PL-SA
!!!SMS-shelfmark: 95/A II 35
!!!SMS-shelfwork: 002 W
!!!SMS-variant:
!!!SMS-altvar:
!!!NIFC-rismSourceID: 1001041186
!!!NIFC-islandoraID:
!!!URL-pdf-islandora:
!!!URL-scan: https://bc.bdsandomierz.pl/dlibra/publication/1376/edition/1344/content @EN{Scan on Cyfrowa Biblioteka Diecezjalna w Sandomierzu} @PL{Skany w portalu Cyfrowa Biblioteka Diecezjalna w Sandomierzu}
!!!ONB-nifc: 2dus
!!!AIN: 1 organ 1 soprn 2 violn
!!!key: D
**kern	**fba	**kern	**dynam	**kern	**dynam	**kern	**text
*part4	*part4	*part3	*part3	*part2	*part2	*part1	*part1
*staff4	*	*staff3	*	*staff2	*	*staff1	*staff1
*I"Organo	*	*I"Violino 2do	*	*I"Violino Imo.	*	*I"Vox Cantans alternatè	*
*I'org	*	*I'vl II	*	*I'vl I	*	*I'V	*
*Iorgan	*	*Ivioln	*	*Ivioln	*	*Isoprn	*
*ICklav	*	*ICstr	*	*ICstr	*	*ICvox	*
*clefF4	*	*clefG2	*	*clefG2	*	*clefC1	*
*k[f#c#]	*	*k[f#c#]	*	*k[f#c#]	*	*k[f#c#]	*
*D:	*	*D:	*	*D:	*	*D:	*
*M6/8	*	*M6/8	*	*M6/8	*	*M6/8	*
=1	=1	=1	=1	=1	=1	=1	=1
!LO:TX:t=P:problem=przy kluczu FF# F# C#	!	!LO:TX:t=P:problem=przy kluczu ff# cc# f#	!	!LO:TX:t=P:problem=przy kluczu ff# cc# f#	!	!	!
!LO:TX:a:B:t=Adagio	!	!LO:TX:a:B:t=Adagio	!	!LO:TX:a:B:t=Adagio	!	!LO:TX:t=P:problem=brak oznaczenia tempa	!
8D/L	.	8f#/L	.	8a/L	.	2.r	.
8r	.	8f#/	.	8a/	.	.	.
8G/J	.	16g/L	.	16b/L	.	.	.
.	.	16e/JJ	.	16g/JJ	.	.	.
!	!	!LO:TX:t=P:problem=mixed beam	!	!	!	!	!
4D/	.	8f#/L	.	8a\L	.	.	.
.	.	16dd\L	.	16dd\L	.	.	.
.	.	16cc#\J	.	16cc#\J	.	.	.
8r	.	8dd\J	.	8dd\J	.	.	.
=2	=2	=2	=2	=2	=2	=2	=2
8D/L	.	8f#/L	.	8a/L	.	2.r	.
8r	.	8f#/	.	8a/J	.	.	.
8G/J	.	16g/L	.	16b/LL	.	.	.
.	.	16e/JJ	.	16g/JJ	.	.	.
!	!	!LO:TX:t=P:problem=mixed beam	!	!	!	!	!
4D/	.	8f#/L	.	8a/L	.	.	.
.	.	16dd\L	.	16dd/L	.	.	.
.	.	16cc#\J	.	16cc#/J	.	.	.
8r	.	8dd\J	.	8dd/J	.	.	.
=3	=3	=3	=3	=3	=3	=3	=3
!LO:TX:t=P:problem=mixed beam	!	!	!	!	!	!	!
8E\L	7	4e/	.	4g/	.	2.r	.
8AA/	.	.	.	.	.	.	.
8D/J	.	8d/	.	8f#/	.	.	.
16AA/LL	.	4c#/	.	4e/	.	.	.
16BB/	.	.	.	.	.	.	.
16C#/	.	.	.	.	.	.	.
16BB/J	.	.	.	.	.	.	.
8AA/J	.	8r	.	8r	.	.	.
=4	=4	=4	=4	=4	=4	=4	=4
8A\L	.	16a\LL	.	16a\LL	.	2.r	.
.	.	32cc#\L	.	32cc#\L	.	.	.
.	.	32dd\JJJ	.	32dd\J	.	.	.
8r	.	16ee\LL	.	16ee\	.	.	.
.	.	16cc#\	.	16cc#\	.	.	.
8D\J	.	16ff#\	.	16ff#\	.	.	.
.	.	16dd\JJ	.	16dd\JJ	.	.	.
4A\	7 5	8a/	.	8a/	.	.	.
*	*	*	*	*custos:a	*	*	*
.	.	4ee\	.	4gg\	.	.	.
8r	.	.	.	.	.	.	.
!	!	!	!	!LO:LB:g=original	!	!	!
=5	=5	=5	=5	=5	=5	=5	=5
8AA/L	.	16a\LL	.	16a\LL	.	2.r	.
.	.	32cc#\L	.	32cc#\L	.	.	.
.	.	32dd\JJJ	.	32dd\J	.	.	.
8r	.	16ee\LL	.	16ee\	.	.	.
.	.	16cc#\JJ	.	16cc#\	.	.	.
!	!	!LO:LB:g=original	!	!	!	!	!
8D/J	.	16ff#\LL	.	16ff#\	.	.	.
.	.	16dd\JJ	.	16a\JJ	.	.	.
8E\L	7	4e/	.	4g/	.	.	.
8AA\	.	.	.	.	.	.	.
8D\J	.	8d/	.	8f#/	.	.	.
=6	=6	=6	=6	=6	=6	=6	=6
!LO:TX:t=P:problem=mixed beam	!	!LO:TX:t=P:problem=mixed beam	!	!	!	!	!
16F#\LL	.	8dd\L	.	8dd\L	.	2.r	.
16G\J	.	.	.	.	.	.	.
8A\	4	8f#/J	.	8f#\J	.	.	.
8AA/J	3	16e/LL	.	16e/LL	.	.	.
.	.	16d/JJ	.	16d/JJ	.	.	.
!LO:LB:g=original	!	!	!	!	!	!	!
4D/	.	4d/	.	4d/	.	.	.
8r	.	8r	.	8r	.	.	.
=7	=7	=7	=7	=7	=7	=7	=7
!	!	!	!LO:DY:a:t=piano	!	!LO:DY:a:t=piano	!	!
2.r	.	8f#/L	p	8a/L	p	8a\	Cho-
.	.	8r	.	8a/	.	8a\	-ri
.	.	8g/J	.	16b/L	.	16b\LL	An-
.	.	.	.	16g/JJ	.	16g\JJ	.
.	.	4d/	.	8a\L	.	8a\	-ge-
.	.	.	.	16dd\L	.	16b\LL	-li-
.	.	.	.	16cc#\J	.	16cc#\JJ	.
.	.	8r	.	8dd\J	.	8dd\	-ci
=8	=8	=8	=8	=8	=8	=8	=8
2.r	.	8f#/L	.	8a/L	.	8a\	et
.	.	8r	.	8a/	.	8a\	Ci-
.	.	8g/J	.	16b/L	.	16b\LL	-ves
.	.	.	.	16g/JJ	.	16g\JJ	.
.	.	4d/	.	8a\L	.	8a\	Cae-
.	.	.	.	16dd\L	.	16b\LL	-li-
.	.	.	.	16cc#\J	.	16cc#\JJ	.
.	.	8r	.	8dd\J	.	8dd\	-ci
=9	=9	=9	=9	=9	=9	=9	=9
2.r	.	4e/	.	4g/	.	4g/	e-
.	.	8d/	.	8f#/	.	8f#/	-le-
.	.	16A/LL	.	4e/	.	4e/	-va-
.	.	16B/	.	.	.	.	.
.	.	16c#/	.	.	.	.	.
.	.	16B/JJ	.	.	.	.	.
!	!	!LO:N:vis=4	!	!	!	!	!
.	.	8A/	.	8e/	.	8e/	-te
!	!	!	!	!LO:LB:g=original	!	!	!
=10	=10	=10	=10	=10	=10	=10	=10
!	!	!	!LO:DY:a:t=forte	!	!LO:DY:a:t=forte	!LO:TX:a:t=Da Capo <...>	!
8A\L	.	16a\LL	f	16a\LL	f	2.r	.
.	.	32cc#\L	.	32cc#\L	.	.	.
.	.	32dd\J	.	32dd\J	.	.	.
8r	.	16ee\	.	16ee\	.	.	.
.	.	16cc#\	.	16cc#\	.	.	.
8D\J	.	16ff#\	.	16ff#\	.	.	.
.	.	16dd\JJ	.	16dd\JJ	.	.	.
4A\	7 5	8a/	.	8a/	.	.	.
.	.	4ee\	.	4gg\	.	.	.
8r	.	.	.	.	.	.	.
!	!	!LO:LB:g=original	!	!	!	!	!
=11	=11	=11	=11	=11	=11	=11	=11
8AA/L	.	16a\LL	.	16a\LL	.	2.r	.
.	.	32cc#\L	.	32cc#\L	.	.	.
.	.	32dd\JJJ	.	32dd\J	.	.	.
8r	.	16ee\LL	.	16ee\	.	.	.
.	.	16cc#\	.	16cc#\	.	.	.
8D/J	.	16ff#\	.	16ff#\	.	.	.
.	.	16a\JJ	.	16a\JJ	.	.	.
!LO:TX:t=P:problem=mixed beam	!	!	!	!	!	!	!
8E\L	7	4e/	.	4g/	.	.	.
8AA/	.	.	.	.	.	.	.
8D/J	.	8d/	.	8f#/	.	.	.
=12	=12	=12	=12	=12	=12	=12	=12
!	!	!LO:TX:t=P:problem=mixed beam	!	!LO:TX:t=P:problem=mixed beam	!	!	!
16F#\LL	.	8dd\L	.	8dd\L	.	2.r	.
16G\JJ	.	.	.	.	.	.	.
!LO:TX:t=P:problem=mixed beam	!	!	!	!	!	!	!
8A\L	4	8f#/J	.	8f#/J	.	.	.
8AA/J	3	16e/LL	.	16e/LL	.	.	.
.	.	16d/JJ	.	16d/JJ	.	.	.
4D/	.	4d/	.	4d/	.	.	.
8r	.	8r	.	8r	.	.	.
!	!	!	!	!	!	!LO:LB:g=original	!
=13	=13	=13	=13	=13	=13	=13	=13
!	!	!	!LO:DY:a:t=piano	!	!LO:DY:a:t=piano	!	!
2.r	.	8f#/L	p	8a/L	p	8a\	Cho-
.	.	8r	.	8a/	.	8a\	-ri
.	.	8g/J	.	16b/L	.	16b\LL	An-
.	.	.	.	16g/JJ	.	16g\JJ	.
.	.	4f#/	.	8a\L	.	8a\	-ge-
.	.	.	.	16dd\L	.	16b\LL	-li-
.	.	.	.	16cc#\J	.	16cc#\JJ	.
.	.	8r	.	8dd\J	.	8dd\	-ci
=14	=14	=14	=14	=14	=14	=14	=14
2.r	.	8f#/L	.	8a/L	.	8a\	et
.	.	8r	.	8a/	.	8a\	ci-
.	.	8g/J	.	16b/L	.	16b\LL	-ves
.	.	.	.	16g/JJ	.	16g\JJ	.
.	.	4f#/	.	8a\L	.	8a\	Cae-
.	.	.	.	16dd\L	.	16b\LL	-li-
.	.	.	.	16cc#\J	.	16cc#\JJ	.
.	.	8r	.	8dd\J	.	8dd\	-ci
!	!	!	!	!LO:LB:g=original	!	!	!
=15	=15	=15	=15	=15	=15	=15	=15
2.r	.	4e/	.	4g/	.	4g/	e-
.	.	8d/	.	8f#/	.	8f#/	-le-
.	.	4c#/	.	4e/	.	4e/	-va-
.	.	8c#/	.	8e/	.	8e/	-te
=16	=16	=16	=16	=16	=16	=16	=16
4A\	.	2.r	.	2.r	.	16a\LL	Por-
.	.	.	.	.	.	16cc#\JJ	.
.	.	.	.	.	.	4ee\	-tas
8r	.	.	.	.	.	.	.
4D/	.	.	.	.	.	16a\LL	Cae-
.	.	.	.	.	.	16dd\JJ	.
.	.	.	.	.	.	4ff#\	-li
8r	.	.	.	.	.	.	.
=17	=17	=17	=17	=17	=17	=17	=17
16E\LL	.	2.r	.	2.r	.	4gg\	ae-
16D\	.	.	.	.	.	.	.
16C#\	.	.	.	.	.	.	.
16D\	.	.	.	.	.	.	.
16C#\	.	.	.	.	.	8ff#\	-ter-
16BB\JJ	.	.	.	.	.	.	.
8AA/L	.	.	.	.	.	4ee\	-na-
16BB/L	.	.	.	.	.	.	.
16C#/J	.	.	.	.	.	.	.
8AA/J	.	.	.	.	.	8ee\	-les
!LO:LB:g=original	!	!	!	!	!	!LO:LB:g=original	!
=18	=18	=18	=18	=18	=18	=18	=18
!LO:TX:t=P:problem=mixed beam	!	!	!	!	!	!	!
8G\L	.	2.r	.	2.r	.	4b\	a-
8GG/	.	.	.	.	.	.	.
8D/J	.	.	.	.	.	8a\	-dor-
8E/L	7	.	.	.	.	4g/	-na-
8AA/	.	.	.	.	.	.	.
8D/J	.	.	.	.	.	8f#/	-te
=19	=19	=19	=19	=19	=19	=19	=19
!LO:TX:t=P:problem=mixed beam	!	!	!	!	!	!	!
8G\L	.	2.r	.	2.r	.	4b\	a-
8GG/	.	.	.	.	.	.	.
8D/J	.	.	.	.	.	8a\	-dor-
8E/L	7	.	.	.	.	4g/	-na-
8AA/	7	.	.	.	.	.	.
8D/J	.	.	.	.	.	8f#/	-te
=20	=20	=20	=20	=20	=20	=20	=20
!	!	!LO:N:vis=4.	!LO:DY:a:t=piano	!	!	!	!
2.r	.	4g/	p	4b/	.	4b\	Ar-
.	.	8g/	.	8b/	.	8b\	-cus
.	.	8.g/L	.	8.cc#\L	.	8.cc#\L	fer-
.	.	16g/L	.	16a\L	.	16a\Jk	.
.	.	16g/	.	16b\	.	16b\LL	-te
.	.	16g/JJ	.	16cc#\JJ	.	16cc#\JJ	.
!	!	!LO:LB:g=original	!	!	!	!	!
=21	=21	=21	=21	=21	=21	=21	=21
2.r	.	8.f#/L	.	8.dd\L	.	8.dd\L	Tri-
.	.	16d/L	.	16b\L	.	16b\Jk	.
.	.	16e/	.	16cc#\	.	16cc#\LL	-um-
.	.	16f#/JJ	.	16dd\JJ	.	16dd\JJ	.
.	.	8.e/L	.	8.cc#\L	.	8.cc#\L	-pha-
.	.	16c#/L	.	16a\L	.	16a\L	.
.	.	16d/	.	16b\	.	16b\	.
.	.	16e/JJ	.	16cc#\JJ	.	16cc#\JJ	.
=22	=22	=22	=22	=22	=22	=22	=22
2.r	.	16f#/LL	.	16dd\LL	.	16dd\LL	.
.	.	16g/	.	16ee\	.	16ee\	.
.	.	16f#/	.	16dd\	.	16dd\	.
.	.	16g/	.	16ee\	.	16ee\	.
.	.	16f#/	.	16dd\	.	16dd\	.
.	.	16g/JJ	.	16ee\JJ	.	16ee\JJ	.
.	.	4e/	.	4cc#\	.	4cc#\	.
.	.	8a/	.	8a/	.	8a\	-les
=23	=23	=23	=23	=23	=23	=23	=23
!LO:TX:t=P:problem=mixed beam	!	!	!	!	!	!	!
8G\L	.	2.r	.	2.r	.	4b\	et
8GG/	.	.	.	.	.	.	.
8D/J	.	.	.	.	.	8a\	pro-
!	!	!	!	!	!	!LO:LB:g=original	!
8E\L	7	.	.	.	.	4g/	-di-
8AA\	.	.	.	.	.	.	.
8D\J	.	.	.	.	.	8f#/	-bit
=24	=24	=24	=24	=24	=24	=24	=24
!LO:TX:t=P:problem=mixed beam	!	!	!	!	!	!	!
8G\L	.	2.r	.	2.r	.	4b\	in-
8GG/	.	.	.	.	.	.	.
8D/J	.	.	.	.	.	8a\	-tro-
!LO:TX:t=P:problem=mixed beam	!	!	!	!	!	!	!
8E\L	7	.	.	.	.	4g/	-i-
8AA/	.	.	.	.	.	.	.
8D/J	.	.	.	.	.	8f#/	-bi
=25	=25	=25	=25	=25	=25	=25	=25
4G\	.	2.r	.	2.r	.	4b\	Rex
8G\	.	.	.	.	.	8b\	ae-
4G\	4 2	.	.	.	.	16cc#\LL	-ter-
.	.	.	.	.	.	16a\	.
.	.	.	.	.	.	16b\	.
.	.	.	.	.	.	16cc#\JJ	.
8F#\	6	.	.	.	.	8dd\	-nae
!	!	!	!	!	!	!	!
=26	=26	=26	=26	=26	=26	=26	=26
!LO:TX:t=P:problem=mixed beam	!	!	!	!	!	!	!
8G\L	.	2.r	.	2.r	.	8ff#\	Glo-
8A\	4	.	.	.	.	8.ee\	.
8AA/J	3	.	.	.	.	.	.
.	.	.	.	.	.	16ee\	-ri-
8D\L	.	.	.	.	.	4dd\	-ae
16F#\L	.	.	.	.	.	.	.
16E\J	.	.	.	.	.	.	.
8D\J	.	.	.	.	.	8r	.
!LO:LB:g=original	!	!	!	!	!	!	!
=27	=27	=27	=27	=27	=27	=27	=27
!LO:TX:t=P:problem=mixed beam	!	!	!	!	!	!	!
8G\L	.	2.r	.	2.r	.	4b\	et
8GG/	.	.	.	.	.	.	.
8D/J	.	.	.	.	.	8a\	pro-
!LO:TX:t=P:problem=mixed beam	!	!	!	!	!	!	!
8E\L	7	.	.	.	.	4g/	-di-
8AA/	.	.	.	.	.	.	.
8D/J	.	.	.	.	.	8f#/	-bit
=28	=28	=28	=28	=28	=28	=28	=28
!LO:TX:t=P:problem=mixed beam	!	!	!	!	!	!	!
8G\L	.	2.r	.	2.r	.	4b\	in-
8GG/	.	.	.	.	.	.	.
8D/J	.	.	.	.	.	8a\	-tro-
!LO:TX:t=P:problem=mixed beam	!	!	!	!	!	!	!
8E\L	7	.	.	.	.	4g/	-i-
8AA/	.	.	.	.	.	.	.
8D/J	.	.	.	.	.	8f#/	-bi
=29	=29	=29	=29	=29	=29	=29	=29
4G\	.	2.r	.	2.r	.	4b\	Rex
8G\	.	.	.	.	.	8b\	ae-
4G\	4 2	.	.	.	.	16cc#\LL	-ter-
.	.	.	.	.	.	16a\	.
.	.	.	.	.	.	16b\	.
.	.	.	.	.	.	16cc#\JJ	.
8F#\	6	.	.	.	.	8dd\	-nae
!	!	!	!	!	!	!LO:LB:g=original	!
=30	=30	=30	=30	=30	=30	=30	=30
!LO:TX:t=P:problem=mixed beam	!	!	!	!	!	!	!
8G\L	.	2.r	.	2.r	.	8ff#\	Glo-
8A\	.	.	.	.	.	8.ee\	.
8AA/J	.	.	.	.	.	.	.
.	.	.	.	.	.	16ee\	-ri-
8D\L	.	.	.	.	.	4dd\	-ae
16A\L	.	.	.	.	.	.	.
16G\	.	.	.	.	.	.	.
16F#\	.	.	.	.	.	8r	.
16E\JJ	.	.	.	.	.	.	.
=31	=31	=31	=31	=31	=31	=31	=31
!	!	!	!LO:DY:a:t=forte	!	!LO:DY:a:t=forte	!	!
8D\L	.	8f#/L	f	8a/L	f	2.r	.
8r	.	8f#/	.	8a/	.	.	.
8G\J	.	8g/J	.	16b/L	.	.	.
.	.	.	.	16g/JJ	.	.	.
!	!	!LO:TX:t=P:problem=mixed beam	!	!	!	!	!
4D/	.	8f#/L	.	8a\L	.	.	.
.	.	16dd\L	.	16dd\L	.	.	.
.	.	16cc#\J	.	16cc#\J	.	.	.
8r	.	8dd\J	.	8dd\J	.	.	.
!	!	!	!	!LO:LB:g=original	!	!	!
=32	=32	=32	=32	=32	=32	=32	=32
8D/	.	8f#/L	.	8a/L	.	2.r	.
8r	.	8f#/	.	8a/	.	.	.
8G\	.	8g/J	.	16b/L	.	.	.
.	.	.	.	16g/JJ	.	.	.
!	!	!LO:TX:t=P:problem=mixed beam	!	!	!	!	!
4D/	.	8f#/L	.	8a\L	.	.	.
.	.	16dd\L	.	16dd\L	.	.	.
.	.	16cc#\J	.	16cc#\J	.	.	.
8r	.	8dd\J	.	8dd\J	.	.	.
=33	=33	=33	=33	=33	=33	=33	=33
8E\L	7	4e/	.	4g/	.	2.r	.
8AA\	.	.	.	.	.	.	.
8D\J	.	8d/	.	8f#/	.	.	.
!LO:LB:g=original	!	!	!	!	!	!	!
16AA/LL	.	4c#/	.	4e/	.	.	.
16BB/	.	.	.	.	.	.	.
16C#/	.	.	.	.	.	.	.
16BB/J	.	.	.	.	.	.	.
*	*	*custos:a	*	*	*	*	*
8AA/J	.	8r	.	8r	.	.	.
!	!	!LO:LB:g=original	!	!	!	!	!
=34	=34	=34	=34	=34	=34	=34	=34
8A\L	.	16a\LL	.	16a\LL	.	2.r	.
.	.	32cc#\L	.	32cc#\L	.	.	.
.	.	32dd\JJJ	.	32dd\JJJ	.	.	.
8r	.	16ee\LL	.	16ee\LL	.	.	.
.	.	16cc#\	.	16cc#\	.	.	.
8D\J	.	16ff#\	.	16ff#\	.	.	.
.	.	16dd\JJ	.	16dd\JJ	.	.	.
4A\	7 5	8a/	.	8a/	.	.	.
.	.	4ee\	.	4gg\	.	.	.
8r	.	.	.	.	.	.	.
=35	=35	=35	=35	=35	=35	=35	=35
8AA/L	.	16a\LL	.	16a/LL	.	2.r	.
.	.	32cc#\L	.	32cc#/L	.	.	.
.	.	32dd\JJJ	.	32dd/JJJ	.	.	.
8r	.	16ee\LL	.	16ee\LL	.	.	.
.	.	16cc#\	.	16cc#\	.	.	.
8D/J	.	16ff#\	.	16ff#\	.	.	.
.	.	16dd\JJ	.	16dd\JJ	.	.	.
8AA/L	7 5	4e/	.	4g/	.	.	.
8C#/	.	.	.	.	.	.	.
8D/J	.	8d/	.	8f#/	.	.	.
=36	=36	=36	=36	=36	=36	=36	=36
!	!	!LO:TX:t=P:problem=mixed beam	!	!	!	!	!
16F#\LL	.	8dd\L	.	8dd\L	.	2.r	.
16G\JJ	.	.	.	.	.	.	.
!LO:TX:t=P:problem=mixed beam	!	!	!	!	!	!	!
8A\L	4	8f#/J	.	8f#\J	.	.	.
8AA/J	3	16e/LL	.	16e/LL	.	.	.
.	.	16d/JJ	.	16d/JJ	.	.	.
8D\L	.	4d/	.	4d/	.	.	.
16F#\L	.	.	.	.	.	.	.
16E\J	.	.	.	.	.	.	.
*	*	*	*	*custos:a	*	*	*
8D\J	.	8r	.	8r	.	.	.
!	!	!	!	!LO:LB:g=original	!	!	!
=37	=37	=37	=37	=37	=37	=37	=37
!	!	!	!LO:DY:a:t=piano	!	!LO:DY:a:t=piano	!	!
8A\L	.	16a\LL	p	16a\LL	p	2.r	.
.	.	32cc#\L	.	32cc#\L	.	.	.
.	.	32dd\JJJ	.	32dd\J	.	.	.
8r	.	16ee\LL	.	16ee\	.	.	.
.	.	16cc#\	.	16cc#\	.	.	.
8D\J	.	16ff#\	.	16ff#\	.	.	.
.	.	16dd\JJ	.	16dd\JJ	.	.	.
4A\	7 5	8a/	.	8a/	.	.	.
.	.	4ee\	.	4gg\	.	.	.
8r	.	.	.	.	.	.	.
=38	=38	=38	=38	=38	=38	=38	=38
8AA/L	.	16a\LL	.	16a\LL	.	2.r	.
.	.	32cc#\L	.	32cc#\L	.	.	.
.	.	32dd\JJJ	.	32dd\JJJ	.	.	.
8r	.	16ee\LL	.	16ee\LL	.	.	.
.	.	16cc#\	.	16cc#\	.	.	.
8D/J	.	16ff#\	.	16ff#\	.	.	.
.	.	16dd\JJ	.	16dd\JJ	.	.	.
8AA/L	7 5	4e/	.	4g/	.	.	.
8C#/	.	.	.	.	.	.	.
8D/J	.	8d/	.	8f#/	.	.	.
!	!	!LO:LB:g=original	!	!	!	!	!
=39	=39	=39	=39	=39	=39	=39	=39
!	!	!LO:TX:t=P:problem=mixed beam	!	!LO:TX:t=P:problem=mixed beam	!	!	!
16F#\LL	.	8dd\L	.	8dd\L	.	2.r;	.
16G\JJ	.	.	.	.	.	.	.
!LO:TX:t=P:problem=mixed beam	!	!	!	!	!	!	!
8A\L	.	8f#/J	.	8f#/J	.	.	.
8AA/J	.	16e/LL	.	16e/LL	.	.	.
.	.	16d/JJ	.	16d/JJ	.	.	.
!LO:LB:g=original	!	!	!	!	!	!	!
!LO:TX:a:t=Finis	!	!LO:TX:a:t=Finis	!	!LO:TX:a:t=Finis	!	!	!
8D\L	.	4d;</	.	4d/	.	.	.
16A\L	.	.	.	.	.	.	.
16G\	.	.	.	.	.	.	.
16F#\	.	8r	.	8r	.	.	.
!LO:TX:t=P:problem=kreska taktowa pojedyncza	!	!	!	!	!	!	!
16E\JJ	.	.	.	.	.	.	.
=40|	=40|	=40||	=40||	=40||	=40||	=40||	=40||
4D/	.	2.r	.	2.r	.	8f#/	Iam
.	.	.	.	.	.	16f#/LL	pom-
.	.	.	.	.	.	16g/JJ	.
8r	.	.	.	.	.	16f#/LL	-pa
.	.	.	.	.	.	16g/JJ	.
4D/	.	.	.	.	.	8a\	fu-
.	.	.	.	.	.	16dd\LL	-gi-
.	.	.	.	.	.	16cc#\JJ	.
8r	.	.	.	.	.	8dd\	-da
=41	=41	=41	=41	=41	=41	=41	=41
16D\LL	.	2.r	.	2.r	.	16f#/LL	ſcan-
16E\	.	.	.	.	.	16g/JJ	.
16F#\	.	.	.	.	.	16a\LL	-den-
16G\	.	.	.	.	.	16b\JJ	.
16F#\	.	.	.	.	.	16a\LL	-ti
16G\JJ	.	.	.	.	.	16b\JJ	.
8.F#\L	.	.	.	.	.	8.a\	ae-
16E\K	.	.	.	.	.	16dd\	-the-
8D\J	.	.	.	.	.	8dd\	-ra
=42	=42	=42	=42	=42	=42	=42	=42
!LO:TX:t=P:problem=mixed beam	!	!	!	!	!	!	!
8E\L	.	2.r	.	2.r	.	4g/	ob-
8AA/	.	.	.	.	.	.	.
8D/J	.	.	.	.	.	8f#/	-vi-
16AA/LL	.	.	.	.	.	4e/	-a-
16BB/	.	.	.	.	.	.	.
16C#/	.	.	.	.	.	.	.
16BB/J	.	.	.	.	.	.	.
8AA/J	.	.	.	.	.	8e/	-te
!	!	!	!	!	!	!LO:LB:g=original	!
=43	=43	=43	=43	=43	=43	=43	=43
!	!	!	!	!	!LO:DY:a:t=piano	!	!
4D/	.	4d/	.	4f#/	p	4f#/	Can-
8D/	6	8d/	.	8b/	.	8b\	-tu
4E\	7 #	8.d/L	.	8.g#X/L	.	8.g#X/L	plau-
.	.	16d/L	.	16e/L	.	16e/Jk	.
8r	.	16d/	.	16f#/	.	16f#/LL	-ſu
.	.	16d/JJ	.	16g#/JJ	.	16g#X/JJ	.
=44	=44	=44	=44	=44	=44	=44	=44
4AA/	.	16c#/LL	.	16a/LL	.	16a\LL	ju-
.	.	16d/	.	16b/	.	16b\	.
.	.	16c#/	.	16a/	.	16a\	.
.	.	16d/	.	16b/	.	16b\JJ	.
8r	.	16c#/	.	16a/	.	16a\LL	-bi-
.	.	16d/JJ	.	16b/JJ	.	16b\JJ	.
4E\	#	8.d/L	.	8.g#X/L	.	8.g#X/L	-lan-
.	.	16d/L	.	16e/L	.	16e/Jk	.
8r	.	16d/	.	16f#/	.	16f#/LL	.
.	.	16d/JJ	.	16g#/JJ	.	16g#X/JJ	.
!	!	!	!	!LO:LB:g=original	!	!	!
=45	=45	=45	=45	=45	=45	=45	=45
4AA/	.	16c#/LL	.	16a\LL	.	16a\LL	.
.	.	16d/	.	16b\	.	16b\	.
.	.	16c#/	.	16a\	.	16a\	.
.	.	16d/	.	16b\	.	16b\JJ	.
8r	.	16c#/	.	16a\	.	16a\LL	.
.	.	16d/JJ	.	16b\JJ	.	16b\JJ	.
4E\	.	8e/L	.	8g#X/L	.	8g#X/	.
.	.	8e/J	.	8e/J	.	8e/	-tes
8r	.	8r	.	8r	.	8r	.
!LO:LB:g=original	!	!	!	!	!	!	!
=46	=46	=46	=46	=46	=46	=46	=46
!	!	!LO:TX:a:t=1	!	!LO:TX:a:t=1	!	!	!
8D\L	.	2.r	.	2.r	.	4a\	ac-
8F#\	.	.	.	.	.	.	.
8A\J	.	.	.	.	.	8gn/	-cla-
8D/L	.	.	.	.	.	4f#/	-ma-
16AA/L	.	.	.	.	.	.	.
16BB/	.	.	.	.	.	.	.
16C#/	.	.	.	.	.	8e/	-te
16AA/JJ	.	.	.	.	.	.	.
!	!	!	!	!	!	!LO:PB:g=original	!
=47	=47	=47	=47	=47	=47	=47	=47
2.r	.	4d/	.	8f#/L	.	4f#/	Flo-
.	.	.	.	8f#/	.	.	.
.	.	8B/	.	8b/J	.	8b\	-res
.	.	4f#/	.	8a#X/L	.	4a#X\	pal-
.	.	.	.	8a#/	.	.	.
.	.	8f#/	.	8f#/J	.	8f#/	-mas
!	!	!LO:LB:g=original	!	!	!	!	!
=48	=48	=48	=48	=48	=48	=48	=48
2.r	.	4d/	.	4b/	.	4b\	pe-
.	.	8B/	.	8dd\	.	8dd\	-ren-
.	.	4f#/	.	4cc#\	.	4cc#\	-nan-
.	.	8f#/	.	8f#/	.	8f#/	-tes
=49	=49	=49	=49	=49	=49	=49	=49
16BB/LL	6	2.r	.	2.r	.	4dd\	lau-
16C#/	.	.	.	.	.	.	.
16D/	.	.	.	.	.	.	.
16C#/J	.	.	.	.	.	.	.
8BB/J	.	.	.	.	.	8dd\	-ros
16F#\LL	#	.	.	.	.	4cc#\	da-
16G\	.	.	.	.	.	.	.
16A#X\	.	.	.	.	.	.	.
16G\J	.	.	.	.	.	.	.
8F#\J	.	.	.	.	.	8cc#\	-te
=50	=50	=50	=50	=50	=50	=50	=50
4B\	-	2.r	.	2.r	.	4dd\	et
8BB/	.	.	.	.	.	8dd\	or-
!	!	!	!	!	!	!LO:N:vis=4	!
16F#\LL	#	.	.	.	.	8cc#\	-na-
16G\	.	.	.	.	.	.	.
16A#X\	.	.	.	.	.	8cc#\	-te
16G\J	.	.	.	.	.	.	.
8F#\J	.	.	.	.	.	16r	.
.	.	.	.	.	.	16cc#\	ve-
=51	=51	=51	=51	=51	=51	=51	=51
!	!	!	!	!	!	!LO:SIC:v:t=-xil-	!
4B\	-	2.r	.	2.r	.	8.dd\L	-xi-
.	.	.	.	.	.	16cc#\Jk	.
8BB/	.	.	.	.	.	8b\	-lum
!LO:TX:t=P:problem=mixed beam	!	!	!	!	!	!	!
8E\L	6 5	.	.	.	.	16cc#\LL	vi-
.	.	.	.	.	.	16b\JJ	.
8F#\	4	.	.	.	.	8.a#X\	-cto-
8FF#/J	3	.	.	.	.	.	.
.	.	.	.	.	.	16b\	-ri-
!	!	!	!	!	!	!LO:LB:g=original	!
=52	=52	=52	=52	=52	=52	=52	=52
8BB/L	-	2.r	.	2.r	.	4b\	-ae
16D/L	.	.	.	.	.	.	.
16C#/J	.	.	.	.	.	.	.
8BB/J	.	.	.	.	.	8r	.
4B\	-	.	.	.	.	4dd\	Lau-
8BB/	.	.	.	.	.	8dd\	-ros
!LO:LB:g=original	!	!	!	!	!	!	!
=53	=53	=53	=53	=53	=53	=53	=53
16F#\LL	#	2.r	.	2.r	.	4cc#\	da-
16G\	.	.	.	.	.	.	.
16A#X\	.	.	.	.	.	.	.
16G\J	.	.	.	.	.	.	.
8F#\J	.	.	.	.	.	8cc#\	-te
4B\	-	.	.	.	.	4dd\	et
8BB/	.	.	.	.	.	8dd\	Or-
=54	=54	=54	=54	=54	=54	=54	=54
16F#\LL	.	2.r	.	2.r	.	8cc#\	-na-
16G\	.	.	.	.	.	.	.
16A#X\	6	.	.	.	.	8cc#\	-te
16G\J	.	.	.	.	.	.	.
8F#\J	.	.	.	.	.	16r	.
.	.	.	.	.	.	16cc#\	Ve-
4B\	-	.	.	.	.	8.dd\L	-xil-
.	.	.	.	.	.	16cc#\Jk	.
8BB/	.	.	.	.	.	8b\	-lum
=55	=55	=55	=55	=55	=55	=55	=55
!LO:TX:t=P:problem=mixed beam	!	!LO:TX:b:t=Da Capo\nad finem	!	!LO:TX:b:t=Da Capo\nad finem	!	!	!
8E\L	6 5	2.r	.	2.r	.	16cc#\LL	vi-
.	.	.	.	.	.	16b\JJ	.
8F#\	4	.	.	.	.	8.a#X\	-cto-
8FF#/J	#	.	.	.	.	.	.
.	.	.	.	.	.	16b\	-ri-
!LO:TX:b:t=Da Capo\nad Fine	!	!	!	!	!	!	!
4.BB/	.	.	.	.	.	4b\	-ae
.	.	.	.	.	.	8r	.
==	==	==	==	==	==	==	==
*-	*-	*-	*-	*-	*-	*-	*-
!!!RDF**kern: < = below
!!!RDF**kern: > = above
!!!system-decoration: [(s1)][(s2,s3)][(s4)]
!!!ENC: Andrzej Kubiczek
!!!END: 2020-12-06
!!!ENC: Urszula Świątek
!!!END: 2022-03-29
